.local/share/icons/Gruvbox-Plus-Dark/mimetypes/scalable/application-vnd.oasis.opendocument.text-web.svg

<svg width="256" height="256" viewBox="0 0 256 256" fill="none" xmlns="http://www.w3.org/2000/svg">
<g opacity="0.4" filter="url(#filter0_f)">
<path d="M55.0839 15.5636H155.608L216.009 75.7129L216.011 224.609C216.011 233.52 208.749 240.737 199.838 240.737H55.0838C46.1734 240.737 39 233.564 39 224.654V31.6474C39 22.737 46.1734 15.5636 55.0838 15.5636H55.0839Z" fill="#282828"/>
</g>
<path d="M55.0839 15H155.608L216.009 75.1493L216.011 224.045C216.011 232.956 208.749 240.174 199.838 240.174H55.0838C46.1734 240.174 39 233 39 224.09V31.0838C39 22.1734 46.1734 15 55.0838 15H55.0839Z" fill="#ebdbb2"/>
<path opacity="0.2" d="M199.838 240.174C208.749 240.174 216.011 232.956 216.011 224.046L216.01 186.5H39V224.09C39 233 46.1734 240.174 55.0838 240.174H199.838Z" fill="url(#paint0_linear)"/>
<path fill-rule="evenodd" clip-rule="evenodd" d="M155.608 20.3191H55.0839C49.1112 20.3191 44.3191 25.1111 44.3191 31.0838V224.09C44.3191 230.063 49.1111 234.855 55.0838 234.855H199.838C205.83 234.855 210.692 229.999 210.692 224.046V75.1493L155.608 20.3191ZM155.608 15H55.0839C46.1735 15 39 22.1734 39 31.0838V224.09C39 233 46.1734 240.174 55.0838 240.174H199.838C208.749 240.174 216.011 232.956 216.011 224.045L216.009 75.1493L155.608 15Z" fill="url(#paint1_linear)"/>
<path d="M101.907 226.48C110.947 226.48 114.187 218.92 114.187 212C114.187 205.08 110.947 197.52 101.907 197.52C92.9066 197.52 89.6266 205.08 89.6266 212C89.6266 218.92 92.9066 226.48 101.907 226.48ZM101.907 221.88C96.4666 221.88 94.5866 216.56 94.5866 212C94.5866 207.68 96.4666 202.12 101.907 202.12C107.347 202.12 109.227 207.4 109.227 212C109.227 216.28 107.307 221.88 101.907 221.88ZM129.633 202.6H137.593V198H116.873V202.6H124.833V226H129.633V202.6ZM159.62 226H164.38V198H159.62V209.32H147.38V198H142.58V226H147.38V213.84H159.62V226Z" fill="url(#paint2_linear)"/>
<path fill-rule="evenodd" clip-rule="evenodd" d="M128 49.0004C133.508 49.0004 138.822 49.716 143.937 51.1393C149.057 52.5715 153.84 54.5748 158.294 57.1771C162.733 59.7651 166.818 62.9155 170.45 66.5503C174.086 70.1805 177.237 74.2663 179.823 78.7058C182.444 83.2124 184.473 88.0381 185.861 93.0635C187.289 98.1835 188 103.492 188 109C188 114.508 187.284 119.821 185.861 124.937C184.474 129.962 182.444 134.788 179.823 139.294C177.235 143.733 174.085 147.818 170.451 151.45C166.821 155.086 162.735 158.237 158.295 160.823C153.788 163.444 148.962 165.474 143.937 166.861C138.747 168.297 133.385 169.016 128 169C122.497 169 117.179 168.284 112.063 166.861C107.038 165.474 102.212 163.444 97.7058 160.823C93.2672 158.235 89.1816 155.085 85.5503 151.45C81.9152 147.819 78.7647 143.733 76.177 139.294C73.5616 134.796 71.534 129.981 70.1437 124.967C68.7022 119.768 67.981 114.395 68.0004 109C68.0004 103.492 68.717 98.179 70.1448 93.0635C71.5305 88.0382 73.5583 83.2125 76.1781 78.7058C78.7658 74.2674 81.9159 70.1817 85.5503 66.5503C89.1811 62.9131 93.2685 59.7624 97.7102 57.1771C102.207 54.5604 107.021 52.5313 112.035 51.1393C117.233 49.6994 122.605 48.9797 128 49.0004ZM75.5037 109C75.5037 114.196 76.2237 119.198 77.6681 124.002H98.9391C98.3169 119.026 98.0046 114.016 98.0002 109C97.998 103.986 98.3113 98.9779 98.9391 94.0024H77.6681C76.2159 98.8686 75.4867 103.922 75.5037 109ZM110.835 59.3715C107.549 60.509 104.388 61.9804 101.402 63.7626C98.4195 65.5419 95.614 67.6031 93.0247 69.9181C90.4363 72.2313 88.0806 74.7924 85.9914 77.5647C83.8891 80.3472 82.083 83.3416 80.6025 86.4991H100.114C100.592 84.1204 101.14 81.7561 101.756 79.4091C102.382 77.0184 103.136 74.6628 104.013 72.3525C104.886 70.0404 105.893 67.7811 107.028 65.5859C108.145 63.425 109.417 61.348 110.835 59.3715ZM80.5981 131.497C82.0765 134.657 83.8827 137.653 85.9869 140.435C90.1749 145.997 95.4102 150.686 101.398 154.238C104.382 156.022 107.543 157.494 110.83 158.629C109.412 156.654 108.139 154.579 107.023 152.419C105.884 150.225 104.876 147.965 104.005 145.652C103.131 143.339 102.378 140.982 101.748 138.591C101.129 136.247 100.581 133.883 100.106 131.506H80.5981V131.497ZM149.503 124.002C149.819 121.501 150.063 119.009 150.24 116.529C150.597 111.516 150.597 106.485 150.24 101.472C150.063 98.9879 149.819 96.5035 149.503 94.0024H106.497C106.186 96.4857 105.941 98.9757 105.765 101.472C105.408 106.484 105.408 111.516 105.765 116.528C105.942 119.012 106.186 121.497 106.498 124.002H149.503ZM128 56.4993C126.098 56.4962 124.235 57.0463 122.64 58.0826C120.981 59.1393 119.449 60.5248 118.042 62.2426C116.636 63.9648 115.377 65.9059 114.261 68.0748C112.134 72.2446 110.416 76.6114 109.133 81.1136C108.622 82.894 108.172 84.6917 107.786 86.5035H148.219C147.358 82.4727 146.182 78.5155 144.703 74.6681C143.835 72.4192 142.847 70.2183 141.743 68.0748C140.694 66.0026 139.427 64.0476 137.966 62.2426C136.665 60.6182 135.111 59.2136 133.364 58.0826C131.767 57.0472 129.904 56.4976 128 56.5004V56.4993ZM128 161.501C129.916 161.501 131.706 160.974 133.36 159.918C135.023 158.861 136.556 157.475 137.962 155.758C139.369 154.035 140.628 152.094 141.743 149.926C143.871 145.756 145.589 141.389 146.872 136.887C147.383 135.105 147.83 133.309 148.214 131.498H107.79C108.65 135.528 109.824 139.485 111.301 143.332C112.172 145.581 113.16 147.782 114.261 149.926C115.377 152.094 116.636 154.035 118.042 155.758C119.449 157.475 120.981 158.865 122.64 159.918C124.303 160.97 126.089 161.501 128 161.501ZM175.406 86.4991C173.926 83.3413 172.12 80.3469 170.018 77.5647C165.83 72.0032 160.594 67.3145 154.607 63.7626C151.622 61.9773 148.462 60.5058 145.174 59.3715C146.592 61.3469 147.864 63.4227 148.981 65.5826C150.119 67.7768 151.127 70.0359 152 72.3481C152.873 74.6612 153.627 77.0181 154.257 79.4091C154.88 81.7925 155.428 84.1536 155.894 86.4947H175.405L175.406 86.4991ZM145.167 158.629C148.453 157.494 151.614 156.023 154.598 154.238C157.582 152.458 160.389 150.397 162.981 148.082C165.569 145.769 167.923 143.208 170.012 140.435C172.114 137.653 173.92 134.659 175.401 131.501H155.887C155.408 133.88 154.86 136.244 154.244 138.591C153.619 140.982 152.867 143.338 151.992 145.649C151.119 147.961 150.112 150.22 148.977 152.415C147.86 154.577 146.587 156.654 145.167 158.629ZM180.5 109C180.5 103.805 179.775 98.8024 178.335 94.0024H157.067C157.687 98.9779 157.999 103.987 158.001 109C158.004 114.016 157.692 119.026 157.067 124.002H178.338C179.777 119.198 180.502 114.196 180.502 109H180.5Z" fill="url(#paint3_linear)"/>
<path opacity="0.25" d="M155.608 17V61.2306C155.608 70.141 162.867 77.1605 171.777 77.1605L216.009 77.1493V75.1493L155.608 17Z" fill="#282828"/>
<path d="M155.608 15V59.2306C155.608 68.141 162.867 75.1605 171.777 75.1605L216.009 75.1493L155.608 15Z" fill="url(#paint4_linear)"/>
<defs>
<filter id="filter0_f" x="23.8778" y="0.441412" width="207.255" height="255.418" filterUnits="userSpaceOnUse" color-interpolation-filters="sRGB">
<feFlood flood-opacity="0" result="BackgroundImageFix"/>
<feBlend mode="normal" in="SourceGraphic" in2="BackgroundImageFix" result="shape"/>
<feGaussianBlur stdDeviation="7.5611" result="effect1_foregroundBlur"/>
</filter>
<linearGradient id="paint0_linear" x1="126.411" y1="186.479" x2="126.452" y2="240.351" gradientUnits="userSpaceOnUse">
<stop stop-color="#076678"/>
<stop offset="1" stop-color="#458588"/>
</linearGradient>
<linearGradient id="paint1_linear" x1="126.411" y1="14.914" x2="127.127" y2="240.916" gradientUnits="userSpaceOnUse">
<stop stop-color="#076678"/>
<stop offset="1" stop-color="#458588"/>
</linearGradient>
<linearGradient id="paint2_linear" x1="126.406" y1="186.98" x2="126.445" y2="240.175" gradientUnits="userSpaceOnUse">
<stop stop-color="#076678"/>
<stop offset="1" stop-color="#458588"/>
</linearGradient>
<linearGradient id="paint3_linear" x1="127.258" y1="48.9541" x2="127.558" y2="169.396" gradientUnits="userSpaceOnUse">
<stop stop-color="#076678"/>
<stop offset="1" stop-color="#458588"/>
</linearGradient>
<linearGradient id="paint4_linear" x1="185.435" y1="14.977" x2="185.585" y2="75.3591" gradientUnits="userSpaceOnUse">
<stop stop-color="#076678"/>
<stop offset="1" stop-color="#458588"/>
</linearGradient>
</defs>
</svg>

<svg width="256" height="256" fill="none" version="1.1" viewBox="0 0 256 256" xmlns="http://www.w3.org/2000/svg">
  <path d="m55.08 15h100.5l60.4 60.15 2e-3 148.9c0 8.911-7.262 16.13-16.17 16.13h-144.8c-8.91 0-16.08-7.174-16.08-16.08v-193c0-8.91 7.173-16.08 16.08-16.08h1e-4z" fill="#ebdbb2"/>
  <path d="m199.8 240.2c8.911 0 16.17-7.218 16.17-16.13l-1e-3 -37.55h-177v37.59c0 8.91 7.173 16.08 16.08 16.08h144.8z" fill="url(#paint0_linear)" opacity=".2"/>
  <path d="m155.6 20.32h-100.5c-5.973 0-10.76 4.792-10.76 10.76v193c0 5.973 4.792 10.76 10.76 10.76h144.8c5.992 0 10.85-4.856 10.85-10.81v-148.9l-55.08-54.83zm0-5.319h-100.5c-8.91 0-16.08 7.173-16.08 16.08v193c0 8.91 7.173 16.08 16.08 16.08h144.8c8.911 0 16.17-7.218 16.17-16.13l-2e-3 -148.9-60.4-60.15z" clip-rule="evenodd" fill="url(#paint1_linear)" fill-rule="evenodd"/>
  <path d="m101.9 226.5c9.04 0 12.28-7.56 12.28-14.48s-3.24-14.48-12.28-14.48c-9 0-12.28 7.56-12.28 14.48s3.28 14.48 12.28 14.48zm0-4.6c-5.44 0-7.32-5.32-7.32-9.88 0-4.32 1.88-9.88 7.32-9.88 5.44 0 7.32 5.28 7.32 9.88 0 4.28-1.92 9.88-7.32 9.88zm27.73-19.28h7.96v-4.6h-20.72v4.6h7.96v23.4h4.8v-23.4zm29.99 23.4h4.76v-28h-4.76v11.32h-12.24v-11.32h-4.8v28h4.8v-12.16h12.24v12.16z" fill="url(#paint2_linear)"/>
  <path d="m128 49c5.508 0 10.82 0.7156 15.94 2.139 5.12 1.432 9.903 3.436 14.36 6.038 4.439 2.588 8.524 5.738 12.16 9.373 3.636 3.63 6.787 7.716 9.373 12.16 2.621 4.507 4.65 9.332 6.038 14.36 1.428 5.12 2.139 10.43 2.139 15.94s-0.716 10.82-2.139 15.94c-1.387 5.025-3.417 9.851-6.038 14.36-2.588 4.439-5.738 8.524-9.372 12.16-3.63 3.636-7.716 6.787-12.16 9.373-4.507 2.621-9.333 4.651-14.36 6.038-5.19 1.436-10.55 2.155-15.94 2.139-5.503 0-10.82-0.716-15.94-2.139-5.025-1.387-9.851-3.417-14.36-6.038-4.439-2.588-8.524-5.738-12.16-9.373-3.635-3.631-6.786-7.717-9.373-12.16-2.615-4.498-4.643-9.313-6.033-14.33-1.442-5.199-2.163-10.57-2.143-15.97 0-5.508 0.7166-10.82 2.144-15.94 1.386-5.025 3.414-9.851 6.033-14.36 2.588-4.438 5.738-8.524 9.372-12.16 3.631-3.637 7.718-6.788 12.16-9.373 4.497-2.617 9.311-4.646 14.32-6.038 5.198-1.44 10.57-2.16 15.96-2.139zm-52.5 60c0 5.196 0.72 10.2 2.164 15h21.27c-0.6222-4.976-0.9345-9.986-0.9389-15-0.0022-5.014 0.3111-10.02 0.9389-15h-21.27c-1.452 4.866-2.181 9.92-2.164 15zm35.33-49.63c-3.286 1.138-6.447 2.609-9.433 4.391-2.982 1.779-5.788 3.84-8.377 6.156-2.588 2.313-4.944 4.874-7.033 7.647-2.102 2.782-3.908 5.777-5.389 8.934h19.51c0.478-2.379 1.026-4.743 1.642-7.09 0.626-2.391 1.38-4.746 2.257-7.057 0.873-2.312 1.88-4.571 3.015-6.767 1.117-2.161 2.389-4.238 3.807-6.214zm-30.24 72.13c1.478 3.16 3.285 6.156 5.389 8.938 4.188 5.562 9.423 10.25 15.41 13.8 2.984 1.784 6.145 3.256 9.432 4.391-1.418-1.975-2.691-4.05-3.807-6.21-1.139-2.194-2.147-4.454-3.018-6.767-0.874-2.313-1.627-4.67-2.257-7.061-0.619-2.344-1.167-4.708-1.642-7.085h-19.51v-9e-3zm68.9-7.495c0.316-2.501 0.56-4.993 0.737-7.473 0.357-5.013 0.357-10.04 0-15.06-0.177-2.484-0.421-4.968-0.737-7.47h-43.01c-0.311 2.483-0.556 4.973-0.732 7.47-0.357 5.012-0.357 10.04 0 15.06 0.177 2.484 0.421 4.969 0.733 7.474h43zm-21.5-67.5c-1.902-0.0031-3.765 0.547-5.36 1.583-1.659 1.057-3.191 2.442-4.598 4.16-1.406 1.722-2.665 3.663-3.781 5.832-2.127 4.17-3.845 8.537-5.128 13.04-0.511 1.78-0.961 3.578-1.347 5.39h40.43c-0.861-4.031-2.037-7.988-3.516-11.84-0.868-2.249-1.856-4.45-2.96-6.593-1.049-2.072-2.316-4.027-3.777-5.832-1.301-1.624-2.855-3.029-4.602-4.16-1.597-1.035-3.46-1.585-5.364-1.582v-0.0011zm0 105c1.916 0 3.706-0.527 5.36-1.583 1.663-1.057 3.196-2.443 4.602-4.16 1.407-1.723 2.666-3.664 3.781-5.832 2.128-4.17 3.846-8.537 5.129-13.04 0.511-1.782 0.958-3.578 1.342-5.389h-40.42c0.86 4.03 2.034 7.987 3.511 11.83 0.871 2.249 1.859 4.45 2.96 6.594 1.116 2.168 2.375 4.109 3.781 5.832 1.407 1.717 2.939 3.107 4.598 4.16 1.663 1.052 3.449 1.583 5.36 1.583zm47.41-75c-1.48-3.158-3.286-6.152-5.388-8.934-4.188-5.562-9.424-10.25-15.41-13.8-2.985-1.785-6.145-3.257-9.433-4.391 1.418 1.975 2.69 4.051 3.807 6.211 1.138 2.194 2.146 4.453 3.019 6.766 0.873 2.313 1.627 4.67 2.257 7.061 0.623 2.383 1.171 4.744 1.637 7.086h19.51l1e-3 0.0044zm-30.24 72.13c3.286-1.135 6.447-2.606 9.431-4.391 2.984-1.78 5.791-3.841 8.383-6.156 2.588-2.313 4.942-4.874 7.031-7.647 2.102-2.782 3.908-5.776 5.389-8.934h-19.51c-0.479 2.379-1.027 4.743-1.643 7.09-0.625 2.391-1.377 4.747-2.252 7.058-0.873 2.312-1.88 4.571-3.015 6.766-1.117 2.162-2.39 4.239-3.81 6.214zm35.33-49.63c0-5.195-0.725-10.2-2.165-15h-21.27c0.62 4.976 0.932 9.985 0.934 15 3e-3 5.016-0.309 10.03-0.934 15h21.27c1.439-4.804 2.164-9.806 2.164-15h-2e-3z" clip-rule="evenodd" fill="url(#paint3_linear)" fill-rule="evenodd"/>
  <path d="m155.6 17v44.23c0 8.91 7.259 15.93 16.17 15.93l44.23-0.0112v-2l-60.4-58.15z" fill="#282828" opacity=".25"/>
  <path d="m155.6 15v44.23c0 8.91 7.259 15.93 16.17 15.93l44.23-0.0112-60.4-60.15z" fill="url(#paint4_linear)"/>
  <defs>
    <linearGradient id="paint0_linear" x1="126.4" x2="126.5" y1="186.5" y2="240.4" gradientUnits="userSpaceOnUse">
      <stop stop-color="#076678" offset="0"/>
      <stop stop-color="#458588" offset="1"/>
    </linearGradient>
    <linearGradient id="paint1_linear" x1="126.4" x2="127.1" y1="14.91" y2="240.9" gradientUnits="userSpaceOnUse">
      <stop stop-color="#076678" offset="0"/>
      <stop stop-color="#458588" offset="1"/>
    </linearGradient>
    <linearGradient id="paint2_linear" x1="126.4" x2="126.4" y1="187" y2="240.2" gradientUnits="userSpaceOnUse">
      <stop stop-color="#076678" offset="0"/>
      <stop stop-color="#458588" offset="1"/>
    </linearGradient>
    <linearGradient id="paint3_linear" x1="127.3" x2="127.6" y1="48.95" y2="169.4" gradientUnits="userSpaceOnUse">
      <stop stop-color="#076678" offset="0"/>
      <stop stop-color="#458588" offset="1"/>
    </linearGradient>
    <linearGradient id="paint4_linear" x1="185.4" x2="185.6" y1="14.98" y2="75.36" gradientUnits="userSpaceOnUse">
      <stop stop-color="#076678" offset="0"/>
      <stop stop-color="#458588" offset="1"/>
    </linearGradient>
  </defs>
</svg>
